X: 1607
T: Murray's Hornpipe
R:hornpipe
N:"Collected by J. O'Neill"
B:O'Neill's 1607
Z:Transcribed by Michael Hogan
M:2/4
L:1/16
K:D
(AF) |"S"D2d2 d2cd | ecAc d2de | f2fd g2ge | afdf ecAF |
D2d2 d2cd | ecAc d2de | fgaf edcB |1 A2AB AGFE :|2 A2A2 A2 |
|: (fg) | agfe dcBA | B2G2 G2(ga) | bagf gfed | c2A2 A2(fg) |
afaf gbgb | afaf gbgb | afdf gece |1 d2d2 d2 :|2 d2d2 dBA"S"F ||


